2 Export/Icons/Rounded/File Copy.svg

<svg xmlns="http://www.w3.org/2000/svg" xmlns:xlink="http://www.w3.org/1999/xlink" width="24" height="24" viewBox="0 0 24 24">
  <defs>
    <path id="file-copy-a" d="M15 1H4c-1.1 0-2 .9-2 2v13c0 .55.45 1 1 1s1-.45 1-1V4c0-.55.45-1 1-1h10c.55 0 1-.45 1-1s-.45-1-1-1zm.59 4.59l4.83 4.83c.37.37.58.88.58 1.41V21c0 1.1-.9 2-2 2H7.99C6.89 23 6 22.1 6 21l.01-14c0-1.1.89-2 1.99-2h6.17c.53 0 1.04.21 1.42.59zM15 12h4.5L14 6.5V11c0 .55.45 1 1 1z"/>
  </defs>
  <g fill="none" fill-rule="evenodd">
    <polygon points="0 0 24 0 24 24 0 24"/>
    <mask id="file-copy-b" fill="#fff">
      <use xlink:href="#file-copy-a"/>
    </mask>
    <use fill="#000" xlink:href="#file-copy-a"/>
    <g fill="#000" mask="url(#file-copy-b)">
      <rect width="24" height="24"/>
    </g>
  </g>
</svg>

<svg xmlns="http://www.w3.org/2000/svg" xmlns:xlink="http://www.w3.org/1999/xlink" width="24" height="24" viewBox="0 0 24 24">
  <defs>
    <path id="file-copy-a" d="M15,1 L4,1 C2.9,1 2,1.9 2,3 L2,16 C2,16.55 2.45,17 3,17 C3.55,17 4,16.55 4,16 L4,4 C4,3.45 4.45,3 5,3 L15,3 C15.55,3 16,2.55 16,2 C16,1.45 15.55,1 15,1 Z M15.59,5.59 L20.42,10.42 C20.79,10.79 21,11.3 21,11.83 L21,21 C21,22.1 20.1,23 19,23 L7.99,23 C6.89,23 6,22.1 6,21 L6.01,7 C6.01,5.9 6.9,5 8,5 L14.17,5 C14.7,5 15.21,5.21 15.59,5.59 Z M15,12 L19.5,12 L14,6.5 L14,11 C14,11.55 14.45,12 15,12 Z"/>
  </defs>
  <g fill="none" fill-rule="evenodd">
    <polygon points="0 0 24 0 24 24 0 24"/>
    <mask id="file-copy-b" fill="#fff">
      <use xlink:href="#file-copy-a"/>
    </mask>
    <use fill="#000" xlink:href="#file-copy-a"/>
    <g fill="#000" mask="url(#file-copy-b)">
      <rect width="24" height="24"/>
    </g>
  </g>
</svg>
